assets/icons/junk/filled.svg

<?xml version="1.0" encoding="UTF-8" standalone="no"?>
<svg viewBox="0 0 24 24" height="24" width="24" version="1.1" id="svg8" sodipodi:docname="mark-junk-filled.svg" inkscape:version="1.1 (ce6663b3b7, 2021-05-25)"
   xmlns:inkscape="http://www.inkscape.org/namespaces/inkscape"
   xmlns:sodipodi="http://sodipodi.sourceforge.net/DTD/sodipodi-0.dtd"
   xmlns="http://www.w3.org/2000/svg"
   xmlns:svg="http://www.w3.org/2000/svg"
   xmlns:rdf="http://www.w3.org/1999/02/22-rdf-syntax-ns#"
   xmlns:cc="http://creativecommons.org/ns#"
   xmlns:dc="http://purl.org/dc/elements/1.1/">
   <metadata id="metadata14">
      <rdf:RDF>
         <cc:Work rdf:about="">
            <dc:format>image/svg+xml</dc:format>
            <dc:type rdf:resource="http://purl.org/dc/dcmitype/StillImage" />
         </cc:Work>
      </rdf:RDF>
   </metadata>
   <defs id="defs12" />
   <sodipodi:namedview pagecolor="#ffffff" bordercolor="#666666" borderopacity="1" objecttolerance="10" gridtolerance="10" guidetolerance="10" inkscape:pageopacity="0" inkscape:pageshadow="2" inkscape:window-width="1920" inkscape:window-height="1016" id="namedview10" showgrid="true" inkscape:zoom="19.445437" inkscape:cx="0.64282435" inkscape:cy="20.904648" inkscape:window-x="0" inkscape:window-y="27" inkscape:window-maximized="1" inkscape:current-layer="svg8" inkscape:pagecheckerboard="0">
      <inkscape:grid type="xygrid" id="grid839" />
      <inkscape:grid type="xygrid" id="grid841" dotted="true" spacingx="0.5" spacingy="0.5" empspacing="10" />
   </sodipodi:namedview>
   <path id="path859" style="color:#000000;fill:#808080;fill-opacity:1;-inkscape-stroke:none" d="M 7.7929688 2 L 7.6464844 2.1464844 L 2 7.7929688 L 2 16.207031 L 7.7929688 22 L 16.207031 22 L 22 16.207031 L 22 7.7929688 L 16.207031 2 L 7.7929688 2 z M 11 6 L 13 6 L 13 11 L 12.599609 14 L 11.400391 14 L 11 11 L 11 6 z M 12 16 A 1 1 0 0 1 13 17 A 1 1 0 0 1 12 18 A 1 1 0 0 1 11 17 A 1 1 0 0 1 12 16 z " />
</svg>

<svg height="24" width="24" xmlns="http://www.w3.org/2000/svg"><path style="color:#000;fill:gray;fill-opacity:1;-inkscape-stroke:none" d="m7.793 2-.147.146L2 7.793v8.414L7.793 22h8.414L22 16.207V7.793L16.207 2H7.793zM11 6h2v5l-.4 3h-1.2l-.4-3V6zm1 10a1 1 0 0 1 1 1 1 1 0 0 1-1 1 1 1 0 0 1-1-1 1 1 0 0 1 1-1z"/></svg>
